X:1     %Music
T:King Pharim
B:Jones, L, 1998, Miss Broadwood's Delight, Ferret Publ.,Sutton Coldfield
S:Mrs Walter Harmon, Pineville, Mo., Dec 10, 1928
Z:Randolph, V
F:http://www.folkinfo.org/songs
M:4/4     %Meter
L:1/8     %
K:E
(BA) |G2 (GF) G2 (GF) |(G2GF) E2 E2 |F2 F2 B2 (BA) | G4 z2
w:King_ Phar-im_ sat a-*mu-**sing, a mu-sing all a-*lone; 
 B2 |c3 B (AG) (FE) |(G3A) B2 e2 |c3 A F2 F2 | E6  |]
w:There came a bles-*sed_ Sa-*viour, And all to him un-known

